Simply black circles/symbolic/panel/battery-full-charged-symbolic.svg

<?xml version="1.0" encoding="UTF-8" standalone="no"?>
<svg
   xmlns:dc="http://purl.org/dc/elements/1.1/"
   xmlns:cc="http://creativecommons.org/ns#"
   xmlns:rdf="http://www.w3.org/1999/02/22-rdf-syntax-ns#"
   xmlns:svg="http://www.w3.org/2000/svg"
   xmlns="http://www.w3.org/2000/svg"
   xmlns:sodipodi="http://sodipodi.sourceforge.net/DTD/sodipodi-0.dtd"
   xmlns:inkscape="http://www.inkscape.org/namespaces/inkscape"
   width="24"
   height="24"
   version="1.1"
   id="svg10"
   sodipodi:docname="battery-full-charged-symbolic.svg"
   inkscape:version="0.92.3 (2405546, 2018-03-11)">
  <metadata
     id="metadata16">
    <rdf:RDF>
      <cc:Work
         rdf:about="">
        <dc:format>image/svg+xml</dc:format>
        <dc:type
           rdf:resource="http://purl.org/dc/dcmitype/StillImage" />
        <dc:title></dc:title>
      </cc:Work>
    </rdf:RDF>
  </metadata>
  <defs
     id="defs14" />
  <sodipodi:namedview
     pagecolor="#ffffff"
     bordercolor="#666666"
     borderopacity="1"
     objecttolerance="10"
     gridtolerance="10"
     guidetolerance="10"
     inkscape:pageopacity="0"
     inkscape:pageshadow="2"
     inkscape:window-width="1366"
     inkscape:window-height="719"
     id="namedview12"
     showgrid="false"
     showguides="true"
     inkscape:guide-bbox="true"
     inkscape:snap-global="true"
     inkscape:zoom="15.674201"
     inkscape:cx="2.6390979"
     inkscape:cy="11.819549"
     inkscape:window-x="0"
     inkscape:window-y="25"
     inkscape:window-maximized="1"
     inkscape:current-layer="svg10" />
  <path
     style="opacity:1;fill:#808080;fill-opacity:0.99579827;stroke:none;stroke-width:1.5;stroke-miterlimit:4;stroke-dasharray:none;stroke-opacity:1"
     d="M 12 0.08984375 C 5.352 0.08984375 0 5.3820559 0 11.955078 C 0 18.5281 5.352 23.820312 12 23.820312 C 18.648 23.820312 24 18.5281 24 11.955078 C 24 5.3820559 18.648 0.08984375 12 0.08984375 z M 12 3.0566406 C 16.986 3.0566406 21 7.0253116 21 11.955078 C 21 16.884845 16.986 20.853516 12 20.853516 C 7.014 20.853516 3 16.884845 3 11.955078 C 3 7.0253116 7.014 3.0566406 12 3.0566406 z M 15.898438 4.1328125 L 6.8007812 12.605469 L 12 12.605469 L 8.1015625 19.867188 L 17.199219 10.183594 L 13.298828 10.183594 L 15.898438 4.1328125 z "
     id="rect814" />
</svg>

<svg xmlns="http://www.w3.org/2000/svg" width="24" height="24"><path d="M12 .09C5.352.09 0 5.382 0 11.955S5.352 23.82 12 23.82s12-5.292 12-11.865S18.648.09 12 .09zm0 2.967c4.986 0 9 3.968 9 8.898s-4.014 8.899-9 8.899-9-3.97-9-8.899c0-4.93 4.014-8.898 9-8.898zm3.898 1.076l-9.097 8.472H12l-3.898 7.262 9.097-9.683h-3.9l2.6-6.051z" fill="gray" fill-opacity=".996"/></svg>
